<?xml version="1.0" encoding="UTF-8"?>
<map version="1.10" tiledversion="1.10.1" orientation="orthogonal" renderorder="right-down" width="12" height="12" tilewidth="16" tileheight="16" infinite="0" nextlayerid="3" nextobjectid="3">
 <tileset firstgid="1" source="../../tileset/buildings-nocollide.tsx"/>
 <layer id="1" name="Ground" width="12" height="12">
  <data encoding="csv">
1,1,1,1,1,1,1,1,1,1,1,1,
1,1,1,1,1,1,1,1,1,1,1,1,
1,1,1,1,1,1,1,1,1,1,1,1,
1,1,1,1,1,1,1,1,1,1,1,1,
1,1,1,1,1,1,1,1,1,1,1,1,
1,1,1,1,1,1,1,1,1,1,1,1,
1,1,1,1,1,1,1,1,1,1,1,1,
1,1,1,1,1,1,1,1,1,1,1,1,
1,1,1,1,1,1,1,1,1,1,1,1,
1,1,1,1,1,1,1,1,1,1,1,1,
1,1,1,1,1,1,1,1,1,1,1,1,
1,1,1,1,1,1,1,1,1,1,1,1
</data>
 </layer>
 <objectgroup id="2" name="Objects">
  <object id="1" template="../../obj/portal.tx" type="portal" x="80" y="80">
   <properties>
    <property name="portalState" value="active"/>
    <property name="sprite" value="sprites/portal.atlas"/>
    <property name="direction" value="down"/>
    <property name="spawn" value="true"/>
    <property name="targetPlane" value=""/>
   </properties>
  </object>
  <object id="2" name="exit" type="entry" x="80" y="160" width="16" height="16">
   <properties>
    <property name="teleport" value=""/>
    <property name="direction" value="down"/>
   </properties>
  </object>
 </objectgroup>
</map>
